X:3576
L:1/8
M:4/4
K:C
 g>f | e>c (3cBc G>c (3c3/2B/c | e>c (3ege c2 d>e | f>d (3d^cd B>d (3dcd | B>A (3BdB G2 g>f | 
 e>c (3cBc G>c (3c3/2B/c | e>c (3ege c2 f>g | a>fg>e f>de>c | B>GA>B c2 :: g>f | 
 e>g (3g^fg e>g (3gfg | e>c (3ege c2 d>e | f>a (3a^ga f>a (3aga | f>d (3faf d2 g>f | 
 e>g (3g^fg e>g (3gfg | e>c (3ege c2 f>g | a>fg>e f>de>c | B>GA>B c2 :|

